!!!LAR: Susato, Tielman
!!!OPR: Het Derde Mussyck Boexken, Vol 3
!!!OTL: Reihent&auml;nze Branlen
!!!OMV: 7. Herkulestanz
!!!PPR: Tielman Susato
!!!PPP@EN: Belgium; Antwerp
!!!PDT: 1551
**kern	**kern	**kern	**kern
*Ifltdb	*Ifltdt	*Ifltda	*Ifltds
*>[A,A]	*>[A,A]	*>[A,A]	*>[A,A]
*>norep[A]	*>norep[A]	*>norep[A]	*>norep[A]
*>A	*>A	*>A	*>A
=1-	=1-	=1-	=1-
*clefF4	*clefGv2	*clefGv2	*clefGv2
*k[]	*k[]	*k[]	*k[]
*met(C)	*met(C)	*met(C)	*met(C)
*M4/4	*M4/4	*M4/4	*M4/4
*MM160	*MM160	*MM160	*MM160
2C/	4.E/	2G/	4.c\
.	8F/	.	8d\
4C/	4G/	4c\	4e\
4C/	4G/	4c\	4e\
=2	=2	=2	=2
(8GG/L	2G/	2B\	4.d\
8AA/)	.	.	.
8BB/	.	.	.
8C/J	.	.	8e\
4D\	4.F/	4.A/	4f\
4D\	.	.	4f\
.	8G/	16G/LL	.
.	.	16F/JJ	.
=3	=3	=3	=3
4.AA/	4A/	4E/	4.c\
.	4E/	4A/	.
8BB/	.	.	8d\
4C/	4.E/	4.G/	4e\
4C/	.	.	4e\
.	8F/	8A/	.
=4	=4	=4	=4
2GG/	4.G/	2B\	2d\
.	16F/LL	.	.
.	16E/JJ	.	.
2GG/	2D/	2B\	2d\
=5	=5	=5	=5
2C/	4.E/	2G/	4.c\
.	8F/	.	8d\
4C/	4G/	4c\	4e\
4C/	4G/	4c\	4e\
=6	=6	=6	=6
(8GG/L	2G/	2B\	4.d\
8AA/)	.	.	.
8BB/	.	.	.
8C/J	.	.	8e\
4D\	4F/	4A/	4f\
4D\	4D/	4F/	4f\
=7	=7	=7	=7
4C/	4E/	4G/	4e\
4AA/	4F/	4A/	4c\
2GG/	2D/	4B\	4d\
.	.	4G/	4B\
=8	=8	=8	=8
2C/	2C/	2G/	2c\
2C/	2C/	2G/	2c\
==:|!	==:|!	==:|!	==:|!
*-	*-	*-	*-
!!!ENC: Craig Stuart Sapp
!!!END: 2004/03/20/
